!!!SOCIAL_FUNCTION:	miscellaneous songs
!!!PDT:	1957
!!!OTL: No_13_Ashiya_Song.krn
!!!LING_GROUP: Keresan
!!!LANG: Tone
!!!REG: Southwest
**kern
*staff1
=1-
*clefF4
*k[f#c#]
*M2/4
4d\
4d\
=2
*M3/4
8A\L
8d\J
4A\
4A\
=3
8d\L
8A\J
4A\
8A\L
8B\J
=4
*M2/4
4A\
4A\
=5
4A\
8r
8A\
=6
4e\
8e\L
8e\J
=7
8e\L
8e\J
8e\L
8f#\J
=8
=
*M3/4
8a\L
8g\J
8g\L
8f#\J
4e\
=9
8e\L
8B\J
8B\L
8B\J
8B\L
8e\J
=10
8e\L
8d\J
8d\L
8B\J
8B\
8r
=11
8d\L
8A\J
8A\L
8A\J
8A\L
8d\J
=12
8d\L
8B\J
8B\L
8d\J
8d\L
8B\J
=13
4A\
8A\L
8B\J
8B\L
8A\J
=14
*M2/4
8A\L
8A\J
8A\L
8B\J
=15
*M3/4
4A\
4A\
8A\
8r
=16
4e\
8e\L
8e\J
8e\L
8f#\J
=17:|!
*M3/4
4A\
4A\
8A\
8r
=18
=
4d\
12B\L
12d\
12d\J
4d\
=19
*M2/4
12d\L
12B\
12B\J
12A\L
12A\
24A\Jk
24r
=20
8.B\L
16B\Jk
12A\L
12A\
24A\Jk
24r
=21
8.B\L
16B\Jk
12A\L
12A\
24A\Jk
24r
=22
4B\
4A\
=23
8A\L
8A\J
8A\
8r
=24
12d\L
12d\
12d\J
12d\L
12d\
12d\J
=25
12d\L
12B\
12B\J
12A\L
12A\
12A\J
=26
*M3/4
4B\
4A\
8A\L
8A\J
=27
*M2/4
4B\
4A\
=28
4A\
8A\L
8A\J
=29
4A\
4r
==:|!
*-
